img/customer-logo-4.svg

<svg width="191" height="42" viewBox="0 0 191 42" fill="none" xmlns="http://www.w3.org/2000/svg">
<path fill-rule="evenodd" clip-rule="evenodd" d="M68.0122 23.3486C68.0122 28.0171 70.876 30.8416 75.1521 30.8416C76.8391 30.8416 78.1337 30.2924 78.9967 29.7824C79.5067 29.4686 79.9383 29.1155 80.3306 28.7232H80.5267V30.5278H84.0967V12.6779H80.5267V23.3878C80.5267 25.7024 78.5652 27.664 75.8975 27.664C73.426 27.664 71.6214 25.7024 71.6214 23.3878V12.6779H68.0514V23.3486H68.0122ZM149.023 30.4886H152.397V19.0725C152.397 14.914 149.769 12.2856 145.061 12.2856C140.589 12.2856 137.921 14.8356 137.725 17.8171H141.295C141.491 16.7579 142.55 15.3064 145.061 15.3064C147.376 15.3064 148.827 16.7187 148.827 19.0725V19.4256H144.355C139.373 19.4256 137.019 21.7402 137.019 25.3101C137.019 28.5663 139.529 30.8416 143.453 30.8416C145.296 30.8416 146.669 30.2532 147.533 29.704C148.042 29.3901 148.474 28.9978 148.827 28.527H149.023V30.4886ZM119.365 25.3101C118.777 26.5655 117.207 27.8209 115.089 27.8209C112.225 27.8209 110.107 25.8594 109.714 22.8386H123.445L123.523 22.3286C123.523 22.2502 123.523 22.1717 123.563 22.1325C123.602 21.8579 123.641 21.5048 123.641 21.0732C123.641 16.091 119.875 12.3248 115.089 12.3248C109.91 12.3248 106.144 16.091 106.144 21.6225C106.144 27.154 109.91 30.9201 115.089 30.9201C119.718 30.9201 122.268 27.7032 123.131 25.3886H119.365V25.3101ZM178.878 30.4886H175.308V5.49872H178.878V20.8379L186.371 12.6387H190.647L182.605 21.3871L191 30.4886H186.724L178.878 21.9363V30.4886ZM159.419 30.4886H155.849V12.6387H159.419V14.4433H159.616C160.008 14.051 160.439 13.6979 160.949 13.3841C161.812 12.8348 163.107 12.3248 164.794 12.3248C169.07 12.3248 171.934 15.1494 171.934 19.8179V30.5278H168.364V19.7786C168.364 17.464 166.559 15.5025 164.088 15.5025C161.42 15.5025 159.459 17.464 159.459 19.7786L159.419 30.4886ZM131.409 30.4886C128.859 30.4886 127.486 29.0763 127.486 26.7224V16.0125H124.622V12.6387H127.486V7.61717H131.056V12.5994H135.175V15.9733H131.056V26.134C131.056 26.8401 131.409 27.1932 132.115 27.1932H135.136V30.4101L131.409 30.4886ZM91.0797 30.4886H87.5098V12.6387H91.0797V14.4433H91.2759C91.6682 14.051 92.0997 13.6979 92.6097 13.3841C93.4728 12.8348 94.7674 12.3248 96.4543 12.3248C100.73 12.3248 103.594 15.1494 103.594 19.8179V30.5278H100.024V19.7786C100.024 17.464 98.2197 15.5025 95.7482 15.5025C93.0805 15.5025 91.119 17.464 91.119 19.7786L91.0797 30.4886ZM61.6961 30.4886C59.1461 30.4886 57.773 29.0763 57.773 26.7224V16.0125H54.9092V12.6387H57.773V7.61717H61.343V12.5994H65.4622V15.9733H61.343V26.134C61.343 26.8401 61.6961 27.1932 62.4022 27.1932H65.423V30.4101L61.6961 30.4886ZM148.866 22.9955C148.866 26.0163 147.101 27.8209 143.884 27.8209C141.726 27.8209 140.667 26.7617 140.667 25.1532C140.667 23.5448 141.883 22.2894 144.59 22.2894H148.866V22.9955ZM109.714 20.1317C110.263 17.2679 112.029 15.3064 115.089 15.3064C117.953 15.3064 119.875 17.2679 120.267 20.1317H109.714Z" fill="#78788B"/>
<path d="M24.5447 2.67418C25.6432 2.59572 26.7024 2.63495 27.6832 2.75265L33.2932 12.4818C32.3124 12.3641 31.2532 12.3249 30.1547 12.4034L24.5447 2.67418Z" fill="#78788B"/>
<path d="M13.6387 5.89108C14.7371 5.30262 15.8748 4.79262 16.9733 4.36108L22.5832 14.0903C21.4848 14.5218 20.3471 15.0318 19.2486 15.6203L13.6387 5.89108Z" fill="#78788B"/>
<path d="M4.38025 13.3449C5.04717 12.5211 5.79255 11.6972 6.61639 10.9126L12.2264 20.6418C11.4025 21.4264 10.6571 22.2502 9.99022 23.0741L4.38025 13.3449Z" fill="#78788B"/>
<path d="M6.57716 29.6647C6.14563 31.587 6.26332 33.4309 7.04793 35.0001L1.8695 26.0163C1.79104 25.8986 1.71258 25.7809 1.63412 25.6632C0.692583 24.0155 0.49643 22.0148 0.967196 19.9355L6.57716 29.6647Z" fill="#78788B"/>
<path d="M35.5293 12.9526L29.9194 3.22339C31.9594 3.85108 33.5678 5.028 34.5486 6.67568C34.627 6.79337 34.7055 6.91106 34.7447 7.06798L39.9232 16.0518C38.9424 14.6002 37.4124 13.541 35.5293 12.9526Z" fill="#78788B"/>
<path d="M7.24414 7.22488C8.18567 6.4795 9.16644 5.77335 10.2257 5.0672L18.2287 18.994C17.1695 19.661 16.1495 20.3671 15.2472 21.1517L7.24414 7.22488Z" fill="#78788B"/>
<path d="M0.457214 15.6987C0.84952 14.7964 1.35952 13.8549 1.94797 12.9133L9.95101 26.8402C9.36255 27.7425 8.85255 28.684 8.46025 29.5863L0.457214 15.6987Z" fill="#78788B"/>
<path d="M26.114 15.3848L18.111 1.49722C19.2094 1.18338 20.3079 0.947999 21.3671 0.791077L29.3701 14.6787C28.2717 14.8356 27.2124 15.071 26.114 15.3848Z" fill="#78788B"/>
<path d="M17.2087 39.3547C16.1102 39.4332 15.051 39.3939 14.0702 39.2762L8.46027 29.5471C9.44103 29.6647 10.5003 29.704 11.5987 29.6255L17.2087 39.3547Z" fill="#78788B"/>
<path d="M28.1147 36.0986C27.0163 36.687 25.8786 37.197 24.7801 37.6286L19.1702 27.8994C20.2686 27.4678 21.4063 26.9578 22.5048 26.3694L28.1147 36.0986Z" fill="#78788B"/>
<path d="M37.4124 28.6448C36.7455 29.4686 36.0001 30.2924 35.1762 31.0771L29.527 21.3479C30.3509 20.5633 31.0963 19.7394 31.7632 18.9156L37.4124 28.6448Z" fill="#78788B"/>
<path d="M35.1763 12.3249C35.6078 10.4026 35.4901 8.55878 34.7055 6.98956L39.8839 15.9734C39.9624 16.0911 40.0409 16.2087 40.1193 16.3264C41.0609 17.9741 41.257 19.9749 40.7862 22.0541L35.1763 12.3249Z" fill="#78788B"/>
<path d="M6.22414 29.0371L11.8341 38.7663C9.79412 38.1386 8.18567 36.9617 7.20491 35.314C7.12645 35.1963 7.04799 35.0786 7.00875 34.9217L1.83032 25.9379C2.81109 27.4286 4.34108 28.4486 6.22414 29.0371Z" fill="#78788B"/>
<path d="M34.5486 34.7647C33.607 35.5101 32.6263 36.2163 31.567 36.9224L23.5248 22.9956C24.584 22.3287 25.604 21.6225 26.5063 20.8379L34.5486 34.7647Z" fill="#78788B"/>
<path d="M41.2962 26.291C40.9039 27.1933 40.3939 28.1348 39.8055 29.0763L31.8024 15.1887C32.3909 14.2864 32.9009 13.3449 33.2932 12.4426L41.2962 26.291Z" fill="#78788B"/>
<path d="M15.6787 26.6048L23.6817 40.4924C22.5833 40.8063 21.4848 41.0416 20.4256 41.1986L12.4225 27.3109C13.4818 27.154 14.5802 26.9186 15.6787 26.6048Z" fill="#78788B"/>
</svg>

<svg width="191" height="42" fill="none" xmlns="http://www.w3.org/2000/svg"><path fill-rule="evenodd" clip-rule="evenodd" d="M68.012 23.349c0 4.668 2.864 7.493 7.14 7.493 1.687 0 2.982-.55 3.845-1.06.51-.313.941-.666 1.334-1.059h.196v1.805h3.57v-17.85h-3.57v10.71c0 2.314-1.962 4.276-4.63 4.276-2.471 0-4.276-1.962-4.276-4.276v-10.71h-3.57v10.67h-.039zm81.011 7.14h3.374V19.073c0-4.159-2.628-6.787-7.336-6.787-4.472 0-7.14 2.55-7.336 5.531h3.57c.196-1.06 1.255-2.51 3.766-2.51 2.315 0 3.766 1.412 3.766 3.766v.353h-4.472c-4.982 0-7.336 2.314-7.336 5.884 0 3.256 2.51 5.532 6.434 5.532 1.843 0 3.216-.589 4.08-1.138a4.656 4.656 0 001.294-1.177h.196v1.962zm-29.658-5.179c-.588 1.256-2.158 2.51-4.276 2.51-2.864 0-4.982-1.96-5.375-4.981h13.731l.078-.51c0-.079 0-.157.04-.197a7.38 7.38 0 00.078-1.059c0-4.982-3.766-8.748-8.552-8.748-5.179 0-8.945 3.766-8.945 9.297 0 5.532 3.766 9.298 8.945 9.298 4.629 0 7.179-3.217 8.042-5.531h-3.766v-.079zm59.513 5.179h-3.57V5.499h3.57v15.339l7.493-8.2h4.276l-8.042 8.75 8.395 9.1h-4.276l-7.846-8.552v8.553zm-19.459 0h-3.57v-17.85h3.57v1.804h.197a7.187 7.187 0 011.333-1.059c.863-.55 2.158-1.06 3.845-1.06 4.276 0 7.14 2.825 7.14 7.494v10.71h-3.57v-10.75c0-2.314-1.805-4.275-4.276-4.275-2.668 0-4.629 1.961-4.629 4.276l-.04 10.71zm-28.01 0c-2.55 0-3.923-1.413-3.923-3.767v-10.71h-2.864V12.64h2.864V7.617h3.57V12.6h4.119v3.374h-4.119v10.161c0 .706.353 1.06 1.059 1.06h3.021v3.216l-3.727.079zm-40.33 0h-3.57v-17.85h3.57v1.804h.197a7.203 7.203 0 011.334-1.059c.863-.55 2.157-1.06 3.844-1.06 4.276 0 7.14 2.825 7.14 7.494v10.71h-3.57v-10.75c0-2.314-1.804-4.275-4.276-4.275-2.668 0-4.629 1.961-4.629 4.276l-.04 10.71zm-29.383 0c-2.55 0-3.923-1.413-3.923-3.767v-10.71h-2.864V12.64h2.864V7.617h3.57V12.6h4.12v3.374h-4.12v10.161c0 .706.353 1.06 1.06 1.06h3.02v3.216l-3.727.079zm87.17-7.494c0 3.021-1.765 4.826-4.982 4.826-2.158 0-3.217-1.06-3.217-2.668s1.216-2.864 3.923-2.864h4.276v.706zm-39.152-2.863c.549-2.864 2.315-4.826 5.375-4.826 2.864 0 4.786 1.962 5.178 4.826h-10.553z" fill="#78788B"/><path d="M24.545 2.674a16.532 16.532 0 013.138.079l5.61 9.729c-.98-.118-2.04-.157-3.138-.079l-5.61-9.729zM13.639 5.891a31.471 31.471 0 013.334-1.53l5.61 9.73a31.473 31.473 0 00-3.334 1.53l-5.61-9.73zM4.38 13.345a25.635 25.635 0 012.236-2.432l5.61 9.729a25.61 25.61 0 00-2.236 2.432l-5.61-9.73zm2.197 16.32c-.431 1.922-.314 3.766.47 5.335L1.87 26.016l-.235-.353C.693 24.015.496 22.015.967 19.936l5.61 9.729zM35.53 12.953l-5.61-9.73c2.04.628 3.648 1.805 4.629 3.453.078.117.157.235.196.392l5.178 8.984c-.98-1.452-2.51-2.511-4.394-3.1zM7.244 7.225a44.8 44.8 0 012.982-2.158l8.003 13.927c-1.06.667-2.08 1.373-2.982 2.158L7.244 7.225zM.457 15.699c.393-.903.903-1.844 1.491-2.786L9.951 26.84a18.9 18.9 0 00-1.49 2.746L.456 15.7zm25.657-.314L18.111 1.497a25.532 25.532 0 013.256-.706L29.37 14.68a24.16 24.16 0 00-3.256.706z" fill="#78788B"/><path d="M17.209 39.355a16.548 16.548 0 01-3.139-.079l-5.61-9.729c.981.118 2.04.157 3.139.078l5.61 9.73zm10.906-3.256a31.495 31.495 0 01-3.335 1.53l-5.61-9.73a31.513 31.513 0 003.335-1.53l5.61 9.73zm9.297-7.454a25.637 25.637 0 01-2.236 2.432l-5.649-9.73a25.625 25.625 0 002.236-2.431l5.65 9.729zm-2.236-16.32c.432-1.922.314-3.766-.47-5.335l5.178 8.983.235.353c.942 1.648 1.138 3.649.667 5.728l-5.61-9.73zM6.224 29.037l5.61 9.73c-2.04-.628-3.648-1.805-4.63-3.453a1.228 1.228 0 01-.195-.392L1.83 25.938c.981 1.49 2.511 2.51 4.394 3.1zm28.325 5.728a44.785 44.785 0 01-2.982 2.157l-8.042-13.926c1.059-.667 2.079-1.373 2.981-2.158l8.043 13.927zm6.747-8.474a21.556 21.556 0 01-1.49 2.785L31.802 15.19a18.897 18.897 0 001.491-2.746l8.003 13.848zm-25.617.314l8.003 13.887c-1.099.314-2.197.55-3.256.707L12.423 27.31a25.536 25.536 0 003.256-.706z" fill="#78788B"/></svg>
